img/mulheres-mobile.svg

<svg fill="none" height="50" viewBox="0 0 23 50" width="23" xmlns="http://www.w3.org/2000/svg"><g fill="#b5bd00"><path d="m15.991 13.3324c-.0597-.2069-.1857-.3885-.3588-.5166-.173-.1282-.3834-.1959-.5987-.1926h-7.9906c-.21438.0006-.42294.0697-.59521.1973-.17226.1276-.2992.307-.36225.5119l-6.0402394 21.3713c-.04696261.1493-.0575186.3077-.0307863.4619.0267323.1543.0899767.2999.1844517.4247.094216.1241.215702.2249.355073.2946.139372.0696.292897.1064.448721.1073h4.04258v13.0024c-.00001.2645.10422.5183.29009.7063.18588.1881.43841.2954.70283.2985h10.00004c.1314 0 .2615-.0261.3828-.0767.1212-.0507.2312-.1249.3236-.2183.0923-.0935.1652-.2043.2144-.3262.0492-.1218.0737-.2522.0722-.3836v-13.0024h4.0071c.2644-.0032.5169-.1104.7028-.2985s.2901-.4418.2901-.7063c.0114-.0942.0114-.1895 0-.2837zm0 20.6621c-.2645 0-.5183.1042-.7063.2901-.1881.1859-.2954.4384-.2985.7028v13.0025h-2.9433v-13.0025c-.0031-.2644-.1103-.5169-.2984-.7028s-.4419-.2901-.7063-.2901c-.2633 0-.5159.1046-.7021.2908s-.2908.4388-.2908.7021v13.0025h-3.0024v-13.0025c-.00311-.2644-.11034-.5169-.29843-.7028s-.44187-.2901-.70631-.2901h-3.62887l5.3783-19.3737h6.50121l5.402 19.3737z"/><path d="m11.0389 10.4256c1.0315.0024 2.0405-.3014 2.8993-.87275.8588-.57137 1.5288-1.38468 1.9251-2.33699.3964-.95231.5013-2.0008.3015-3.01276-.1998-1.01197-.6954-1.94191-1.4239-2.67211-.7286-.730212-1.6574-1.227859-2.6689-1.429957-1.0115-.202097-2.0602-.09955858-3.01341.294637-.95321.394196-1.76804 1.06233-2.34135 1.91982-.57332.8575-.87935 1.86581-.87935 2.89731 0 1.38048.54758 2.70459 1.52262 3.68184.97503.97725 2.2979 1.52786 3.67839 1.53096zm0-8.27429c.623-.00219 1.2325.18145 1.7506.52745.5181.34601.9213.83865 1.158 1.41497.2367.57631.2961 1.21012.1707 1.82039-.1254.61028-.4299 1.1693-.8746 1.60561-.4448.43631-1.0095.73009-1.6221.84379-.6125.11369-1.2451.04214-1.81676-.20551-.57168-.24766-1.05653-.66017-1.39256-1.1848-.33604-.52463-.508-1.13755-.49389-1.76041 0-.82763.32877-1.62137.914-2.20659.58522-.58523 1.37891-.914 2.20661-.914z"/></g></svg>

<svg width="23" height="50" viewBox="0 0 23 50" fill="none" xmlns="http://www.w3.org/2000/svg">
<path d="M15.991 13.3324C15.9313 13.1255 15.8053 12.9439 15.6322 12.8158C15.4592 12.6876 15.2488 12.6199 15.0335 12.6232H7.0429C6.82852 12.6238 6.61996 12.6929 6.44769 12.8205C6.27543 12.9481 6.14849 13.1275 6.08544 13.3324L0.0452006 34.7037C-0.00176201 34.853 -0.012318 35.0114 0.0144143 35.1656C0.0411466 35.3199 0.104391 35.4655 0.198866 35.5903C0.293082 35.7144 0.414568 35.8152 0.553939 35.8849C0.693311 35.9545 0.846836 35.9913 1.00266 35.9922H5.04524V48.9946C5.04523 49.2591 5.14946 49.5129 5.33533 49.7009C5.52121 49.889 5.77374 49.9963 6.03816 49.9994H16.0382C16.1696 49.9994 16.2997 49.9733 16.421 49.9227C16.5422 49.872 16.6522 49.7978 16.7446 49.7044C16.8369 49.6109 16.9098 49.5001 16.959 49.3782C17.0082 49.2564 17.0327 49.126 17.0312 48.9946V35.9922H21.0383C21.3027 35.989 21.5552 35.8818 21.7411 35.6937C21.927 35.5056 22.0312 35.2519 22.0312 34.9874C22.0426 34.8932 22.0426 34.7979 22.0312 34.7037L15.991 13.3324ZM15.991 33.9945C15.7265 33.9945 15.4727 34.0987 15.2847 34.2846C15.0966 34.4705 14.9893 34.723 14.9862 34.9874V47.9899H12.0429V34.9874C12.0398 34.723 11.9326 34.4705 11.7445 34.2846C11.5564 34.0987 11.3026 33.9945 11.0382 33.9945C10.7749 33.9945 10.5223 34.0991 10.3361 34.2853C10.1499 34.4715 10.0453 34.7241 10.0453 34.9874V47.9899H7.0429V34.9874C7.03979 34.723 6.93256 34.4705 6.74447 34.2846C6.55638 34.0987 6.3026 33.9945 6.03816 33.9945H2.40929L7.78759 14.6208H14.2888L19.6908 33.9945H15.991Z" fill="#B5BD00"/>
<path d="M11.0389 10.4256C12.0704 10.428 13.0794 10.1242 13.9382 9.55285C14.797 8.98148 15.467 8.16817 15.8633 7.21586C16.2597 6.26355 16.3646 5.21506 16.1648 4.2031C15.965 3.19113 15.4694 2.26119 14.7409 1.53099C14.0123 0.800778 13.0835 0.303131 12.072 0.101033C11.0605 -0.101064 10.0118 0.00147442 9.05859 0.39567C8.10538 0.789866 7.29055 1.458 6.71724 2.31549C6.14392 3.17299 5.83789 4.1813 5.83789 5.2128C5.83789 6.59328 6.38547 7.91739 7.36051 8.89464C8.33554 9.87189 9.65841 10.4225 11.0389 10.4256V10.4256ZM11.0389 2.15131C11.6619 2.14912 12.2714 2.33276 12.7895 2.67876C13.3076 3.02477 13.7108 3.51741 13.9475 4.09373C14.1842 4.67004 14.2436 5.30385 14.1182 5.91412C13.9928 6.5244 13.6883 7.08342 13.2436 7.51973C12.7988 7.95604 12.2341 8.24982 11.6215 8.36352C11.009 8.47721 10.3764 8.40566 9.80474 8.15801C9.23306 7.91035 8.74821 7.49784 8.41218 6.97321C8.07614 6.44858 7.90418 5.83566 7.91829 5.2128C7.91829 4.38517 8.24706 3.59143 8.83229 3.00621C9.41751 2.42098 10.2112 2.09221 11.0389 2.09221V2.15131Z" fill="#B5BD00"/>
</svg>
